;FLAVOR:RepRap
;TIME:900
;Generated with Cura_SteamEngine 2.3.1
;Wait for bed to reach target temp (SXX)
M190 S60
;Set extruder target temp (SXX) <-- redundant (see below)
M104 S200
;Set extruder target temp *and wait* (SXX)
M109 S200
G28 ;Home
G1 Z15.0 F6000 ;Move the platform down 15mm
;Prime the extruder
G92 E0
G1 F200 E3
G92 E0
;LAYER_COUNT:24
;LAYER:0
M106 S0 ;M107 ;FIXME use `M106 S0` (M107 is deprecated per RepRap)
G1 F1500 E-6.5
G0 F1800 X62.704 Y36.738 Z.3
;TYPE:SKIRT
G1 F1500 E0
G1 F900 X63.039 Y36.301 E0.02747
G1 X63.433 Y35.916 E0.05495
G1 X63.879 Y35.593 E0.08243
G1 X64.085 Y35.485 E0.09403
G1 X64.319 Y35.306 E0.10873
G1 X64.533 Y35.16 E0.12165
G1 X65.01 Y34.883 E0.14917
G1 X65.521 Y34.678 E0.17664
G1 X66.057 Y34.55 E0.20414
G1 X66.606 Y34.5 E0.23164
G1 X67.156 Y34.53 E0.25912
G1 X67.696 Y34.639 E0.2866
G1 X68.215 Y34.825 E0.31411
G1 X68.701 Y35.084 E0.34158
G1 X69.145 Y35.411 E0.36909
G1 X69.536 Y35.798 E0.39654
G1 X69.844 Y36.202 E0.42189
G1 X70.235 Y36.793 E0.45724
G1 X70.505 Y37.274 E0.48476
G1 X70.703 Y37.788 E0.51224
G1 X70.824 Y38.326 E0.53975
G1 X70.866 Y38.875 E0.56722
G1 X70.848 Y39.26 E0.58645
G1 X70.818 Y39.567 E0.60184
G1 X70.805 Y39.644 E0.60573
G1 X70.961 Y39.49 E0.61667
G1 X71.406 Y39.165 E0.64416
G1 X71.651 Y39.024 E0.65827
G1 X71.782 Y38.955 E0.66565
G1 X72.287 Y38.734 E0.69315
G1 X72.818 Y38.589 E0.72062
G1 X73.365 Y38.522 E0.74811
G1 X73.916 Y38.534 E0.77561
G1 X74.638 Y38.675 E0.81231
G1 X74.826 Y38.731 E0.82209
G1 X75.179 Y38.865 E0.84093
G1 X75.454 Y38.943 E0.85519
G1 X75.956 Y39.17 E0.88268
G1 X76.421 Y39.466 E0.91018
G1 X76.837 Y39.827 E0.93766
G1 X77.197 Y40.244 E0.96514
G1 X77.493 Y40.709 E0.99264
G1 X77.719 Y41.212 E1.02015
G1 X77.866 Y41.728 E1.04692
G1 X77.955 Y42.15 E1.06844
G1 X78.03 Y42.696 E1.09593
G1 X78.024 Y43.247 E1.12343
G1 X77.964 Y43.676 E1.14504
G1 X77.913 Y43.932 E1.15806
G1 X77.766 Y44.464 E1.1856
G1 X77.544 Y44.968 E1.21307
G1 X77.252 Y45.435 E1.24055
G1 X76.895 Y45.855 E1.26805
G1 X76.405 Y46.275 E1.30025
G1 X76.159 Y46.452 E1.31537
G1 X75.69 Y46.74 E1.34283
G1 X75.184 Y46.958 E1.37031
G1 X74.651 Y47.1 E1.39783
G1 X74.104 Y47.163 E1.4253
G1 X73.553 Y47.147 E1.4528
G1 X73.011 Y47.052 E1.48026
G1 X72.488 Y46.878 E1.50775
G1 X72.084 Y46.683 E1.53014
G1 X71.766 Y46.505 E1.54832
G1 X71.306 Y46.202 E1.5758
G1 X70.895 Y45.835 E1.60329
G1 X70.541 Y45.413 E1.63077
G1 X70.251 Y44.944 E1.65828
G1 X70.011 Y44.371 E1.68927
G1 X69.792 Y43.702 E1.72439
G1 X69.659 Y43.168 E1.75185
G1 X69.604 Y42.619 E1.77937
G1 X69.641 Y41.987 E1.81096
G1 X69.648 Y41.938 E1.81343
G1 X69.502 Y42.088 E1.82387
G1 X69.257 Y42.297 E1.83994
G1 X68.813 Y42.623 E1.86742
G1 X68.327 Y42.882 E1.89489
G1 X67.808 Y43.067 E1.92238
G1 X67.268 Y43.176 E1.94987
G1 X66.528 Y43.197 E1.9868
G1 X66.139 Y43.17 E2.00625
G1 X65.593 Y43.092 E2.03377
G1 X65.065 Y42.936 E2.06124
G1 X64.565 Y42.705 E2.08872
G1 X63.917 Y42.254 E2.1281
G1 X63.415 Y41.82 E2.16121
G1 X63.025 Y41.43 E2.18873
G1 X62.696 Y40.988 E2.21622
G1 X62.434 Y40.503 E2.24372
G1 X62.245 Y39.986 E2.27118
G1 X62.14 Y39.495 E2.29623
G1 X62.122 Y39.372 E2.30243
G1 X62.082 Y38.823 E2.3299
G1 X62.122 Y38.273 E2.35741
G1 X62.241 Y37.735 E2.3849
G1 X62.436 Y37.22 E2.41237
G1 X62.704 Y36.738 E2.43989
G1 F1500 E-4.06011
G0 F1800 X64.369 Y35.786
G1 F1500 E2.43989
G1 F900 X64.545 Y35.636 E2.45142
G1 X64.759 Y35.49 E2.46435
G1 X65.211 Y35.231 E2.49034
G1 X65.697 Y35.043 E2.51633
G1 X66.206 Y34.932 E2.54233
G1 X66.726 Y34.899 E2.56832
G1 X67.245 Y34.947 E2.59432
G1 X67.751 Y35.074 E2.62035
G1 X68.231 Y35.276 E2.64633
G1 X68.675 Y35.549 E2.67234
G1 X69.071 Y35.887 E2.69831
G1 X69.511 Y36.423 E2.73291
G1 X69.902 Y37.014 E2.76826
G1 X70.155 Y37.469 E2.79424
G1 X70.336 Y37.958 E2.82025
G1 X70.44 Y38.469 E2.84627
G1 X70.45 Y39.221 E2.88379
G1 X70.42 Y39.528 E2.89918
G1 X70.33 Y40.041 E2.92516
G1 X70.162 Y40.534 E2.95115
G1 X69.921 Y40.996 E2.97714
G1 X69.612 Y41.416 E3.00316
G1 X69.243 Y41.784 E3.02916
G1 X68.998 Y41.993 E3.04522
G1 X68.576 Y42.3 E3.07126
G1 X68.113 Y42.538 E3.09723
G1 X67.619 Y42.704 E3.12323
G1 X67.105 Y42.791 E3.14924
G1 X66.556 Y42.798 E3.17663
G1 X66.167 Y42.771 E3.19608
G1 X65.651 Y42.695 E3.22211
G1 X65.153 Y42.541 E3.24811
G1 X64.684 Y42.313 E3.27413
G1 X64.178 Y41.951 E3.30517
G1 X63.676 Y41.517 E3.33827
G1 X63.309 Y41.147 E3.36427
G1 X63.003 Y40.725 E3.39028
G1 X62.765 Y40.262 E3.41625
G1 X62.601 Y39.767 E3.44227
G1 X62.536 Y39.437 E3.45905
G1 X62.518 Y39.314 E3.46525
G1 X62.482 Y38.794 E3.49126
G1 X62.526 Y38.275 E3.51724
G1 X62.649 Y37.769 E3.54322
G1 X62.848 Y37.287 E3.56924
G1 X63.118 Y36.841 E3.59525
G1 X63.454 Y36.442 E3.62127
G1 X63.846 Y36.099 E3.64726
G1 X64.286 Y35.82 E3.67325
G1 X64.369 Y35.786 E3.67773
G0 F1800 X64.565 Y36.136
G1 F900 X64.77 Y35.967 E3.69098
G1 X64.984 Y35.821 E3.70391
G1 X65.41 Y35.579 E3.72835
G1 X65.869 Y35.409 E3.75277
G1 X66.35 Y35.317 E3.7772
G1 X66.839 Y35.303 E3.80161
G1 X67.324 Y35.37 E3.82603
G1 X67.792 Y35.515 E3.85048
G1 X68.229 Y35.733 E3.87484
G1 X68.626 Y36.02 E3.89928
G1 X68.971 Y36.368 E3.92373
G1 X69.177 Y36.644 E3.94091
G1 X69.568 Y37.235 E3.97627
G1 X69.804 Y37.664 E4.00069
G1 X69.967 Y38.125 E4.02509
G1 X70.053 Y38.607 E4.04951
G1 X70.052 Y39.182 E4.0782
G1 X70.022 Y39.489 E4.09359
G1 X69.935 Y39.97 E4.11798
G1 X69.77 Y40.432 E4.14245
G1 X69.533 Y40.86 E4.16686
G1 X69.229 Y41.244 E4.1913
G1 X68.983 Y41.479 E4.20827
G1 X68.738 Y41.688 E4.22433
G1 X68.341 Y41.975 E4.24877
G1 X67.903 Y42.192 E4.27316
G1 X67.435 Y42.336 E4.29759
G1 X66.95 Y42.402 E4.32201
G1 X66.583 Y42.399 E4.34032
G1 X66.194 Y42.372 E4.35977
G1 X65.71 Y42.298 E4.3842
G1 X65.245 Y42.147 E4.40859
G1 X64.81 Y41.922 E4.43303
G1 X64.44 Y41.648 E4.456
G1 X63.938 Y41.214 E4.4891
G1 X63.595 Y40.865 E4.51352
G1 X63.313 Y40.465 E4.53793
G1 X63.101 Y40.024 E4.56235
G1 X62.932 Y39.379 E4.59561
G1 X62.914 Y39.256 E4.60181
G1 X62.882 Y38.768 E4.62621
G1 X62.931 Y38.281 E4.65063
G1 X63.058 Y37.808 E4.67506
G1 X63.261 Y37.363 E4.69947
G1 X63.533 Y36.956 E4.72389
G1 X63.868 Y36.599 E4.74831
G1 X64.256 Y36.301 E4.77272
G1 X64.565 Y36.136 E4.7902
G0 F1800 X64.748 Y36.491
G1 F900 X64.996 Y36.297 E4.80591
G1 X65.21 Y36.151 E4.81883
G1 X65.607 Y35.928 E4.84155
G1 X66.037 Y35.778 E4.86427
G1 X66.487 Y35.706 E4.887
G1 X66.943 Y35.713 E4.90976
G1 X67.39 Y35.799 E4.93247
G1 X67.815 Y35.962 E4.95518
G1 X68.206 Y36.197 E4.97794
G1 X68.549 Y36.497 E5.00067
G1 X68.843 Y36.864 E5.02413
G1 X69.234 Y37.455 E5.05948
G1 X69.452 Y37.856 E5.08226
G1 X69.595 Y38.288 E5.10496
G1 X69.662 Y38.739 E5.12771
G1 X69.654 Y39.143 E5.14787
G1 X69.624 Y39.45 E5.16325
G1 X69.54 Y39.898 E5.18599
G1 X69.379 Y40.324 E5.20872
G1 X69.146 Y40.716 E5.23147
G1 X68.723 Y41.175 E5.26261
G1 X68.478 Y41.384 E5.27867
G1 X68.107 Y41.648 E5.30139
G1 X67.696 Y41.844 E5.32411
G1 X67.256 Y41.964 E5.34686
G1 X66.611 Y42 E5.37909
G1 X66.222 Y41.973 E5.39854
G1 X65.772 Y41.902 E5.42127
G1 X65.341 Y41.753 E5.44402
G1 X64.943 Y41.531 E5.46676
G1 X64.702 Y41.346 E5.48192
G1 X64.2 Y40.912 E5.51502
G1 X63.882 Y40.585 E5.53778
G1 X63.627 Y40.207 E5.56053
G1 X63.442 Y39.791 E5.58324
G1 X63.327 Y39.321 E5.60738
G1 X63.309 Y39.198 E5.61359
G1 X63.283 Y38.744 E5.63627
G1 X63.337 Y38.291 E5.65903
G1 X63.469 Y37.855 E5.68176
G1 X63.674 Y37.448 E5.7045
G1 X63.948 Y37.084 E5.72723
G1 X64.281 Y36.773 E5.74996
G1 X64.663 Y36.525 E5.77268
G1 X64.748 Y36.491 E5.77725
G0 F1800 X65.032 Y36.796
G1 F900 X65.221 Y36.628 E5.78986
G1 X65.435 Y36.482 E5.80279
G1 X65.802 Y36.28 E5.82369
G1 X66.201 Y36.151 E5.84461
G1 X66.617 Y36.1 E5.86552
G1 X67.035 Y36.129 E5.88642
G1 X67.44 Y36.236 E5.90732
G1 X67.817 Y36.419 E5.92823
G1 X68.153 Y36.669 E5.94912
G1 X68.51 Y37.085 E5.97647
G1 X68.901 Y37.676 E6.01183
G1 X69.098 Y38.046 E6.03274
G1 X69.221 Y38.447 E6.05366
G1 X69.266 Y38.863 E6.07454
G1 X69.256 Y39.104 E6.08657
G1 X69.226 Y39.411 E6.10196
G1 X69.145 Y39.822 E6.12286
G1 X68.988 Y40.211 E6.14379
G1 X68.761 Y40.563 E6.16469
G1 X68.464 Y40.871 E6.18603
G1 X68.219 Y41.08 E6.2021
G1 X67.876 Y41.32 E6.22299
G1 X67.493 Y41.491 E6.24391
G1 X67.085 Y41.586 E6.26481
G1 X66.639 Y41.601 E6.28707
G1 X66.25 Y41.574 E6.30653
G1 X65.836 Y41.505 E6.32747
G1 X65.443 Y41.359 E6.34838
G1 X64.963 Y41.043 E6.37705
G1 X64.461 Y40.609 E6.41016
G1 X64.172 Y40.306 E6.43105
G1 X63.945 Y39.954 E6.45195
G1 X63.789 Y39.565 E6.47286
G1 X63.723 Y39.264 E6.48823
G1 X63.705 Y39.141 E6.49443
G1 X63.684 Y38.722 E6.51536
G1 X63.743 Y38.307 E6.53628
G1 X63.88 Y37.911 E6.55718
G1 X64.089 Y37.548 E6.57808
G1 X64.363 Y37.231 E6.59898
G1 X64.692 Y36.972 E6.61987
G1 X65.032 Y36.796 E6.63897
G0 F1800 X65.206 Y37.161
G1 F900 X65.447 Y36.958 E6.65469
G1 X65.661 Y36.812 E6.66762
G1 X65.994 Y36.633 E6.68648
G1 X66.358 Y36.527 E6.7054
G1 X66.736 Y36.5 E6.7243
G1 X67.112 Y36.553 E6.74325
G1 X67.467 Y36.683 E6.76211
G1 X67.788 Y36.885 E6.78103
G1 X68.06 Y37.149 E6.79994
G1 X68.176 Y37.306 E6.80968
G1 X68.567 Y37.897 E6.84503
G1 X68.742 Y38.233 E6.86393
G1 X68.842 Y38.599 E6.88286
G1 X68.857 Y39.065 E6.90612
G1 X68.827 Y39.372 E6.92151
G1 X68.751 Y39.743 E6.94041
G1 X68.599 Y40.09 E6.95931
G1 X68.377 Y40.398 E6.97825
G1 X68.204 Y40.566 E6.99028
G1 X67.959 Y40.775 E7.00634
G1 X67.647 Y40.99 E7.02525
G1 X67.296 Y41.134 E7.04418
G1 X66.923 Y41.201 E7.06308
G1 X66.666 Y41.202 E7.07591
G1 X66.277 Y41.175 E7.09536
G1 X65.904 Y41.109 E7.11426
G1 X65.553 Y40.966 E7.13317
G1 X65.225 Y40.741 E7.15301
G1 X64.723 Y40.307 E7.18612
G1 X64.464 Y40.03 E7.20504
G1 X64.268 Y39.705 E7.22397
G1 X64.119 Y39.206 E7.24995
G1 X64.101 Y39.083 E7.25615
G1 X64.086 Y38.704 E7.27508
G1 X64.15 Y38.331 E7.29396
G1 X64.292 Y37.979 E7.3129
G1 X64.503 Y37.665 E7.33177
G1 X64.776 Y37.402 E7.35068
G1 X65.098 Y37.202 E7.36959
G1 X65.206 Y37.161 E7.37536
G0 F1800 X65.47 Y37.488
G1 F900 X65.672 Y37.289 E7.3895
G1 X65.886 Y37.143 E7.40243
G1 X66.182 Y36.989 E7.41907
G1 X66.507 Y36.909 E7.43577
G1 X66.841 Y36.909 E7.45244
G1 X67.166 Y36.988 E7.46912
G1 X67.462 Y37.141 E7.48575
G1 X67.714 Y37.361 E7.50243
G1 X67.843 Y37.527 E7.51292
G1 X68.234 Y38.118 E7.54828
G1 X68.383 Y38.416 E7.5649
G1 X68.458 Y38.742 E7.58159
G1 X68.459 Y39.026 E7.59576
G1 X68.429 Y39.333 E7.61115
G1 X68.357 Y39.659 E7.6278
G1 X68.21 Y39.959 E7.64447
G1 X67.945 Y40.262 E7.66455
G1 X67.7 Y40.471 E7.68062
G1 X67.421 Y40.656 E7.69732
G1 X67.107 Y40.77 E7.71399
G1 X66.694 Y40.803 E7.73466
G1 X66.305 Y40.776 E7.75411
G1 X65.977 Y40.713 E7.77077
G1 X65.673 Y40.574 E7.78745
G1 X65.486 Y40.438 E7.79899
G1 X64.984 Y40.004 E7.83209
G1 X64.76 Y39.757 E7.84873
G1 X64.6 Y39.464 E7.86538
G1 X64.515 Y39.148 E7.88171
G1 X64.497 Y39.025 E7.88791
G1 X64.488 Y38.691 E7.90458
G1 X64.559 Y38.364 E7.92128
G1 X64.705 Y38.064 E7.93792
G1 X64.918 Y37.807 E7.95457
G1 X65.186 Y37.607 E7.97126
G1 X65.47 Y37.488 E7.98662
G0 F1800 X65.671 Y37.842
G1 F900 X65.699 Y37.798 E7.98922
G1 X65.897 Y37.619 E8.00254
G1 X66.111 Y37.473 E8.01546
G1 X66.365 Y37.348 E8.02959
G1 X66.642 Y37.3 E8.04361
G1 X66.923 Y37.33 E8.05771
G1 X67.184 Y37.438 E8.0718
G1 X67.404 Y37.614 E8.08586
G1 X67.509 Y37.747 E8.09431
G1 X67.9 Y38.338 E8.12967
G1 X68.021 Y38.593 E8.14375
G1 X68.061 Y38.987 E8.16351
G1 X68.031 Y39.294 E8.17889
G1 X67.964 Y39.568 E8.19297
G1 X67.824 Y39.813 E8.20705
G1 X67.685 Y39.958 E8.21707
G1 X67.44 Y40.167 E8.23313
G1 X67.202 Y40.318 E8.2472
G1 X66.931 Y40.396 E8.26126
G1 X66.722 Y40.404 E8.2717
G1 X66.333 Y40.377 E8.29115
G1 X66.057 Y40.318 E8.30523
G1 X65.748 Y40.135 E8.32315
G1 X65.246 Y39.701 E8.35626
G1 X65.061 Y39.489 E8.37029
G1 X64.942 Y39.233 E8.38438
G1 X64.911 Y39.09 E8.39168
G1 X64.893 Y38.967 E8.39788
G1 X64.891 Y38.685 E8.41195
G1 X64.969 Y38.413 E8.42607
G1 X65.12 Y38.175 E8.44013
G1 X65.331 Y37.988 E8.4542
G1 X65.611 Y37.859 E8.46958
G1 X65.671 Y37.842 E8.47269
G0 F1800 X65.926 Y38.186
G1 F900 X65.936 Y38.155 E8.47431
G1 X66.123 Y37.949 E8.48819
G1 X66.337 Y37.803 E8.50112
G1 X66.536 Y37.715 E8.51197
G1 X66.754 Y37.704 E8.52286
G1 X66.962 Y37.772 E8.53378
G1 X67.175 Y37.968 E8.54822
G1 X67.566 Y38.559 E8.58358
G1 X67.652 Y38.76 E8.59448
G1 X67.663 Y38.948 E8.60388
G1 X67.633 Y39.255 E8.61927
G1 X67.573 Y39.465 E8.63016
G1 X67.425 Y39.653 E8.6421
G1 X67.18 Y39.862 E8.65817
G1 X66.991 Y39.972 E8.66908
G1 X66.749 Y40.005 E8.68126
G1 X66.36 Y39.978 E8.70072
G1 X66.149 Y39.923 E8.71159
G1 X66.01 Y39.833 E8.71986
G1 X65.508 Y39.399 E8.75296
G1 X65.371 Y39.229 E8.76386
G1 X65.306 Y39.032 E8.77421
G1 X65.288 Y38.909 E8.78041
G1 X65.297 Y38.691 E8.79129
G1 X65.382 Y38.49 E8.80218
G1 X65.534 Y38.333 E8.81308
G1 X65.719 Y38.244 E8.82332
G1 X65.926 Y38.186 E8.83405
G0 F1800 X66.245 Y38.544
G1 F900 X66.263 Y38.417 E8.84045
G1 X66.348 Y38.28 E8.84849
G1 X66.562 Y38.134 E8.86142
G1 X66.682 Y38.099 E8.86765
G1 X66.842 Y38.189 E8.87681
G1 X67.233 Y38.78 E8.91217
G1 X67.265 Y38.909 E8.9188
G1 X67.235 Y39.216 E8.93419
G1 X67.166 Y39.349 E8.94166
G1 X66.921 Y39.558 E8.95773
G1 X66.777 Y39.606 E8.9653
G1 X66.388 Y39.579 E8.98475
G1 X66.271 Y39.53 E8.99108
G1 X65.769 Y39.096 E9.02419
G1 X65.702 Y38.974 E9.03113
G1 X65.684 Y38.851 E9.03734
G1 X65.706 Y38.728 E9.04357
G1 X65.828 Y38.629 E9.05141
G1 X66.13 Y38.544 E9.06706
G1 X66.211 Y38.539 E9.07111
G1 X66.245 Y38.544 E9.07282
G1 F1500 E2.57282
G0 F1800 X65.896 Y38.101
G0 X66.119 Y37.809
G0 X66.471 Y37.606
G0 X66.901 Y37.659
G0 X67.17 Y37.826
G0 X70.357 Y40.914
G1 F1500 E9.07282
G1 F900 X70.618 Y40.463 E9.09882
G1 X70.945 Y40.057 E9.12483
G1 X71.33 Y39.706 E9.15082
G1 X71.838 Y39.378 E9.18099
G1 X71.969 Y39.309 E9.18838
G1 X72.447 Y39.102 E9.21436
G1 X72.951 Y38.971 E9.24034
G1 X73.47 Y38.918 E9.26637
G1 X73.99 Y38.945 E9.29235
G1 X74.524 Y39.058 E9.31958
G1 X74.712 Y39.114 E9.32937
G1 X75.046 Y39.243 E9.34723
G1 X75.369 Y39.339 E9.36404
G1 X75.84 Y39.563 E9.39006
G1 X76.271 Y39.856 E9.41606
G1 X76.652 Y40.212 E9.44208
G1 X76.974 Y40.621 E9.46805
G1 X77.23 Y41.075 E9.49405
G1 X77.475 Y41.81 E9.5327
G1 X77.564 Y42.232 E9.55422
G1 X77.632 Y42.749 E9.58023
G1 X77.62 Y43.27 E9.60623
G1 X77.571 Y43.598 E9.62278
G1 X77.52 Y43.854 E9.6358
G1 X77.38 Y44.356 E9.6618
G1 X77.164 Y44.83 E9.68779
G1 X76.878 Y45.266 E9.71381
G1 X76.529 Y45.653 E9.7398
G1 X76.172 Y45.95 E9.76297
G1 X75.926 Y46.127 E9.77809
G1 X75.481 Y46.398 E9.80409
G1 X74.999 Y46.598 E9.83012
G1 X74.493 Y46.722 E9.85611
G1 X73.974 Y46.767 E9.8821
G1 X73.454 Y46.732 E9.9081
G1 X72.945 Y46.618 E9.93413
G1 X72.279 Y46.334 E9.97025
G1 X71.961 Y46.156 E9.98843
G1 X71.527 Y45.867 E10.01444
G1 X71.143 Y45.516 E10.0404
G1 X70.816 Y45.109 E10.06645
G1 X70.556 Y44.658 E10.09242
G1 X70.391 Y44.247 E10.11451
G1 X70.172 Y43.578 E10.14963
G1 X70.048 Y43.072 E10.17563
G1 X70.003 Y42.552 E10.20167
G1 X70.037 Y42.043 E10.22712
G1 X70.056 Y41.909 E10.23387
G1 X70.168 Y41.4 E10.25987
G1 X70.357 Y40.914 E10.28589
G0 F1800 X70.744 Y41.034
G1 F900 X70.999 Y40.616 E10.31031
G1 X71.319 Y40.246 E10.33472
G1 X71.695 Y39.933 E10.35913
G1 X72.024 Y39.732 E10.37836
G1 X72.155 Y39.663 E10.38575
G1 X72.605 Y39.471 E10.41016
G1 X73.081 Y39.354 E10.43461
G1 X73.569 Y39.317 E10.45903
G1 X74.056 Y39.36 E10.48342
G1 X74.409 Y39.442 E10.5015
G1 X74.597 Y39.498 E10.51129
G1 X74.882 Y39.608 E10.52653
G1 X75.281 Y39.734 E10.5474
G1 X75.718 Y39.955 E10.57183
G1 X76.112 Y40.245 E10.59624
G1 X76.455 Y40.594 E10.62065
G1 X76.736 Y40.995 E10.64508
G1 X76.948 Y41.436 E10.66949
G1 X77.083 Y41.893 E10.69327
G1 X77.172 Y42.315 E10.71478
G1 X77.234 Y42.801 E10.73923
G1 X77.179 Y43.52 E10.7752
G1 X77.128 Y43.776 E10.78823
G1 X76.994 Y44.247 E10.81266
G1 X76.784 Y44.689 E10.83707
G1 X76.506 Y45.092 E10.8615
G1 X76.166 Y45.444 E10.88591
G1 X75.938 Y45.625 E10.90044
G1 X75.692 Y45.802 E10.91556
G1 X75.273 Y46.055 E10.93998
G1 X74.818 Y46.236 E10.96441
G1 X74.34 Y46.34 E10.98881
G1 X73.851 Y46.366 E11.01324
G1 X73.365 Y46.311 E11.03764
G1 X72.893 Y46.179 E11.06209
G1 X72.475 Y45.985 E11.08509
G1 X72.157 Y45.807 E11.10327
G1 X71.75 Y45.534 E11.12772
G1 X71.394 Y45.198 E11.15214
G1 X71.097 Y44.809 E11.17656
G1 X70.867 Y44.377 E11.20097
G1 X70.771 Y44.122 E11.21457
G1 X70.552 Y43.453 E11.24969
G1 X70.438 Y42.977 E11.27411
G1 X70.403 Y42.489 E11.29851
G1 X70.433 Y42.099 E11.31803
G1 X70.452 Y41.965 E11.32478
